frontend/public/svg/interface/caution.svg

<svg width="153" height="129" viewBox="0 0 153 129" fill="none" xmlns="http://www.w3.org/2000/svg">
<g clip-path="url(#clip0)">
<path d="M73.2541 126.878C57.1032 127.497 41.3316 128.16 25.5548 128.666C21.1189 128.809 16.668 128.49 12.2243 128.38C11.8907 128.373 11.5577 128.346 11.2271 128.301C2.75016 127.096 -1.03685 121.338 2.41758 113.511C5.91048 105.817 9.86945 98.3442 14.2723 91.1346C27.9633 68.2051 41.8793 45.4126 55.7438 22.5868C58.4012 18.2118 61.2123 13.9308 63.9373 9.59692C64.4056 8.85093 65.0604 8.0985 65.1825 7.27889C66.1107 1.0452 74.0407 -1.51659 79.6271 1.53837C81.6544 2.68695 83.4388 4.22207 84.8789 6.0573C90.0611 12.6011 95.2395 19.1651 100.046 25.9864C113.898 45.6479 127.588 65.4258 141.299 85.1856C145.623 91.4167 149.657 97.8171 151.616 105.283C152.414 108.324 152.966 111.356 152.275 114.517C151.306 118.947 148.84 122.122 144.373 123.043C140.036 123.984 135.629 124.568 131.197 124.791C114.647 125.443 98.086 125.834 81.5303 126.355C78.643 126.449 75.7608 126.718 73.2541 126.878ZM10.2521 118.706C12.3619 120.016 14.3035 119.795 16.1255 119.732C31.004 119.221 45.8826 118.705 60.7513 118.038C75.7368 117.368 90.7133 116.503 105.696 115.768C115.463 115.29 125.237 114.934 135.003 114.429C137.058 114.323 139.095 113.807 141.619 113.401C141.155 111.046 140.931 109.082 140.371 107.22C138.713 101.705 135.597 96.9389 132.316 92.3001C120.227 75.22 108.18 58.1088 95.9235 41.1499C89.4096 32.1361 82.5105 23.4019 75.7485 14.568C74.9313 13.6115 74.055 12.7072 73.1248 11.8603C71.1248 12.2513 70.5597 13.6578 69.8562 14.8905C67.43 19.1416 65.0631 23.4254 62.6083 27.6602C51.6224 46.6141 40.6216 65.5593 29.6062 84.4963C24.2914 93.6272 18.8772 102.7 13.5838 111.843C12.3341 114.014 11.3863 116.351 10.2521 118.705V118.706Z" fill="black"/>
<path d="M69.7971 58.9619C69.7971 54.8482 69.7283 50.7333 69.8322 46.6223C69.9024 45.0729 70.1642 43.5384 70.6117 42.0538C70.7423 41.4396 71.1099 40.9021 71.6341 40.5589C72.159 40.2156 72.7969 40.0944 73.4101 40.2218C74.439 40.4969 75.3257 41.1515 75.8934 42.0545C76.3897 43.1679 76.6417 44.3752 76.6326 45.5948C77.1419 54.0244 77.6083 62.4569 78.0305 70.8918C78.1071 72.2164 77.9538 73.5442 77.5758 74.8159C77.3562 75.6929 76.8379 76.4656 76.111 77.0005C75.3841 77.536 74.4942 77.7999 73.5939 77.7477C72.7507 77.7471 71.9316 77.465 71.2658 76.9464C70.6 76.4271 70.1252 75.7007 69.916 74.8811C69.5373 73.6119 69.3314 72.2965 69.3022 70.972C69.2255 66.971 69.2742 62.9673 69.2742 58.9651L69.7971 58.9619Z" fill="black"/>
<path d="M78.6976 90.2274C78.6996 90.7512 78.5956 91.2705 78.3923 91.7539C78.1896 92.2367 77.8908 92.6738 77.5154 93.038C77.1393 93.4029 76.6943 93.687 76.2058 93.8746C75.718 94.0622 75.1971 94.1489 74.6748 94.1293C73.6231 94.0524 72.6377 93.5847 71.9122 92.8178C71.1859 92.051 70.7709 91.0398 70.7488 89.9831C70.7897 87.7595 72.856 85.5932 74.919 85.6095C76.9821 85.6258 78.7203 87.7523 78.6976 90.2274Z" fill="black"/>
</g>
<defs>
<clipPath id="clip0">
<rect width="152" height="129" fill="white" transform="translate(0.777344)"/>
</clipPath>
</defs>
</svg>

<svg xmlns="http://www.w3.org/2000/svg" width="153" height="129" fill="none" viewBox="0 0 153 129"><g fill="#000" clip-path="url(#a)"><path d="M73.254 126.878c-16.15.619-31.922 1.282-47.7 1.788-4.435.143-8.886-.176-13.33-.286a9 9 0 0 1-.997-.079c-8.477-1.205-12.264-6.963-8.81-14.79a208 208 0 0 1 11.855-22.376c13.691-22.93 27.607-45.722 41.472-68.548 2.657-4.375 5.468-8.656 8.193-12.99.469-.746 1.123-1.498 1.246-2.318.928-6.234 8.858-8.796 14.444-5.74a17.9 17.9 0 0 1 5.252 4.518c5.182 6.544 10.36 13.108 15.167 19.93 13.852 19.66 27.542 39.439 41.253 59.199 4.324 6.23 8.358 12.631 10.317 20.097.798 3.041 1.35 6.073.659 9.234-.969 4.43-3.435 7.605-7.902 8.526a81.4 81.4 0 0 1-13.176 1.748c-16.55.652-33.111 1.043-49.667 1.564-2.887.094-5.77.363-8.276.523m-63.002-8.172c2.11 1.31 4.051 1.089 5.873 1.026 14.879-.511 29.758-1.027 44.626-1.694 14.986-.67 29.962-1.535 44.945-2.27 9.767-.478 19.541-.834 29.307-1.339 2.055-.106 4.092-.622 6.616-1.028-.464-2.355-.688-4.319-1.248-6.181-1.658-5.515-4.774-10.281-8.055-14.92-12.089-17.08-24.136-34.191-36.392-51.15-6.514-9.014-13.414-17.748-20.175-26.582a30 30 0 0 0-2.624-2.708c-2 .391-2.565 1.798-3.269 3.03-2.426 4.252-4.793 8.535-7.248 12.77a42351 42351 0 0 1-33.002 56.836c-5.315 9.131-10.729 18.204-16.022 27.347-1.25 2.171-2.198 4.508-3.332 6.862z"/><path d="M69.797 58.962c0-4.114-.069-8.229.035-12.34.07-1.55.332-3.084.78-4.568a2.38 2.38 0 0 1 1.022-1.495 2.36 2.36 0 0 1 1.776-.337 4.22 4.22 0 0 1 2.483 1.832 8.5 8.5 0 0 1 .74 3.54q.763 12.645 1.398 25.298a11.5 11.5 0 0 1-.455 3.924A3.88 3.88 0 0 1 76.11 77a3.87 3.87 0 0 1-2.517.747 3.8 3.8 0 0 1-2.328-.802 3.8 3.8 0 0 1-1.35-2.065 14.8 14.8 0 0 1-.614-3.909c-.077-4.001-.028-8.005-.028-12.007zm8.901 31.265a3.9 3.9 0 0 1-1.183 2.811 3.87 3.87 0 0 1-2.84 1.091 4.23 4.23 0 0 1-2.763-1.311 4.25 4.25 0 0 1-1.163-2.835c.04-2.224 2.107-4.39 4.17-4.374s3.801 2.143 3.779 4.618"/></g><defs><clipPath id="a"><path fill="#fff" d="M.777 0h152v129h-152z"/></clipPath></defs></svg>
